X:9
T:Huntingtone Castle
R:air
O:Scottish
Z:id:hn-air-9
M:6/8
L:1/8
K:Em
B, | E>FE G2A | B2A F>ED | E>FE G2A | B>AB d2e |
f>ed B>dB | ABA F>ED | E>FE G>AB | A>GF E2 :|
|: d | e>fe d>cB | A>BA F>ED | Eee e>fg | fe^d e2f |
g>af e>fd | B>dA F>ED | E>FE G>AB | AGF E2 :|
<end>
<start>
